X:336
T:Dushenka
Z:Jack Campin, http://www.campin.me.uk/
F:Jack Campin's Nine-Note Tunebook
% last edit 03-02-2013
S:http://www.duduk.com
M:6/8
L:1/8
Q:3/8=112
K:GDor
GGc A3 |GGc A3|G2A FFG|EEF D3 :|
F2G EFD|G2G G3|F2G EFD|GD2 D3  |
EFG EFD|F2G G3|EFG EFD|GD2 Dz2 |
GGc A3 |GGc A3|GGA FFG|EEF D3  |
F2G EFD|F2G G3|F2G EFD|GD2 Dz2 |
EFG EFD|F2G G3|EFG EFD|G2D2 Dz|]

